X: 13347
T: Flatwater Fran
R: waltz
M: 3/4
K: Amajor
EF|:"A"A2 A2 EF|A2 A2 ce|"D"f2 e2 A2|"A" c4 EF|A2 A2 EF|"Hm"B2 B2 AB|
"F#m"c2 BA FE|"D"F4 EF|"A"A2 A2 EF|A2 A2 ce|"D"f2 e2 a2|"A"c4 ec|
"Hm"B2 BA Bc|"F#m"BA F2 AF|"D"EF A2"E7"A2|1 "A"A4 EF:|2 "A"A4 ce||
|:"D"f2 e2 A2|"A"c4 ce|"D"f2 e2 A2|"A"c4 ce|"D"f2 e2 a2|"F#m"c2 ec BA|
"Hm"B2 BA Bc|"E"B4 ce|"D"f2 e2 a2|"A"c2 ec BA|"E7"B2 e3 d|"F#m"c4 BA|
"Hm"FB BA Bc|"F#m"BA F2 AF|1 "D"EF A2"E7"A2|"A"A4 ce:|2 "D"EF A2"E7"A2|"A"A4||

